X: 5142
T: Brig O' Perth, The
R: strathspey
M: 4/4
K: Adorian
d>G|A>ce>g f>de<d|c<Ac>e a2 c>B|A>ce>g f>de<d|B<GB>d g2 d>G|
A>ce>g f>de<d|c<Ac>e a2 f>g|a>fg>e f>de>=c|B<dG>B g2||
(3dcB|A<ae>a c>ae>a|c<Ac>e a>ec>B|A<ae>a c>a e2|B<GB>d g2 d>B|
A<ae>a c>ae>a|c<Ac>e a2 f>g|(3agf g>e (3fed e>=c|B<dG>B g2||

